icons/invision.svg

<?xml version="1.0" encoding="UTF-8"?>
<svg width="256px" height="256px" viewBox="0 0 256 256" version="1.1" xmlns="http://www.w3.org/2000/svg" xmlns:xlink="http://www.w3.org/1999/xlink" preserveAspectRatio="xMidYMid">
    <g>
        <rect fill="#FF0066" x="0" y="0" width="256" height="256"></rect>
        <path d="M87.11168,82.3808 C95.209435,82.2624485 101.689441,75.6228904 101.610827,67.5246522 C101.532212,59.426414 94.9245317,52.9139057 86.8260052,52.9526078 C78.7274787,52.9916561 72.1826248,59.5673003 72.18176,67.66592 C72.1951648,71.601798 73.7793543,75.3694466 76.582571,78.1322878 C79.3857877,80.895129 83.1760217,82.4244944 87.11168,82.3808 L87.11168,82.3808 Z" fill="#FFFFFF"></path>
        <path d="M56.15616,161.15712 C55.3084638,164.779901 54.8654322,168.485567 54.8352,172.20608 C54.8352,185.15968 61.85984,193.76128 76.78976,193.76128 C89.16992,193.76128 99.21536,186.40896 106.43456,174.53056 L102.02112,192.24576 L126.59712,192.24576 L140.65664,135.92576 C144.16896,121.6512 150.96832,114.24768 161.29024,114.24768 C169.41056,114.24768 174.45888,119.296 174.45888,127.6416 C174.498944,130.317151 174.129443,132.983084 173.3632,135.54688 L166.12352,161.44384 C165.087687,165.010327 164.570388,168.707296 164.58752,172.42112 C164.58752,184.70912 171.8272,193.72032 186.97216,193.72032 C199.92576,193.72032 210.24768,185.38496 215.95136,165.40672 L206.29504,161.66912 C201.46176,175.06304 197.29408,177.47968 194.00704,177.47968 C190.72,177.47968 188.94848,175.28832 188.94848,170.89536 C189.043352,168.590173 189.411145,166.304358 190.04416,164.08576 L197.07904,138.84416 C198.65839,133.654975 199.472504,128.263195 199.49568,122.83904 C199.49568,103.95648 188.07808,94.1056 174.24384,94.1056 C161.29024,94.1056 148.1216,105.78944 141.53728,118.08768 L146.36032,96.01024 L108.83072,96.01024 L103.55712,115.46624 L121.12896,115.46624 L110.31552,158.72 C101.81632,177.60256 86.21056,177.90976 84.25472,177.46944 C81.03936,176.7424 78.99136,175.52384 78.99136,171.32544 C79.085126,167.926249 79.6010821,164.551896 80.52736,161.28 L96.99328,95.95904 L55.296,95.95904 L50.03264,115.41504 L67.36896,115.41504 L56.15616,161.15712 Z" fill="#FFFFFF"></path>
    </g>
</svg>

<svg xmlns="http://www.w3.org/2000/svg" viewBox="0 0 256 256">
  <path fill="#f06" d="M0 0h256v256H0z"/>
  <path fill="#fff" d="M87.112 82.38c8.097-.118 14.577-6.757 14.499-14.855-.079-8.099-6.686-14.611-14.785-14.572-8.099.039-14.643 6.614-14.644 14.713a14.766 14.766 0 0 0 14.93 14.715zM56.156 161.157a50.289 50.289 0 0 0-1.32 11.05c0 12.953 7.024 21.554 21.954 21.554 12.38 0 22.425-7.352 29.645-19.23l-4.414 17.715h24.576l14.06-56.32c3.512-14.275 10.311-21.678 20.633-21.678 8.12 0 13.169 5.048 13.169 13.394.04 2.675-.33 5.341-1.096 7.905l-7.24 25.897a38.718 38.718 0 0 0-1.535 10.977c0 12.288 7.24 21.3 22.384 21.3 12.954 0 23.276-8.336 28.98-28.314l-9.657-3.738c-4.833 13.394-9 15.81-12.288 15.81-3.287 0-5.059-2.19-5.059-6.584a29.195 29.195 0 0 1 1.096-6.81l7.035-25.24a55.788 55.788 0 0 0 2.417-16.006c0-18.883-11.418-28.733-25.252-28.733-12.954 0-26.122 11.683-32.707 23.982l4.823-22.078h-37.53l-5.273 19.456h17.572l-10.813 43.254c-8.5 18.883-24.105 19.19-26.061 18.75-3.216-.728-5.264-1.946-5.264-6.145.094-3.399.61-6.773 1.536-10.045l16.466-65.321H55.296l-5.263 19.456h17.336z"/>
</svg>
